icons/1_Primary/PythonAnywhere.svg

<svg width="1024" height="1024" viewBox="0 0 1024 1024" fill="none" xmlns="http://www.w3.org/2000/svg">
<g clip-path="url(#clip0_2_3246)">
<path d="M512 1024C794.77 1024 1024 794.77 1024 512C1024 229.23 794.77 0 512 0C229.23 0 0 229.23 0 512C0 794.77 229.23 1024 512 1024Z" fill="#9ABEFF"/>
<path d="M508.1 746.32C505.76 743.44 502.44 741.83 499.42 739.88C496.96 738.29 496.1 736.88 496.61 733.69C501.09 705.83 505.33 677.93 509.61 650.04C512.51 631.18 515.38 612.31 518.38 592.72C522.72 595.72 526.77 598.35 530.68 601.18C531.84 602.02 531.13 603.51 530.96 604.66C529.96 611.4 528.96 618.14 527.89 624.88L520.89 670.56L513.95 715.84C513.36 719.74 512.8 723.64 512.2 727.72C514.08 727.97 515.2 726.9 516.45 726.25C552.204 707.583 587.95 688.883 623.69 670.15C624.69 669.64 625.69 669.15 626.58 668.63C627.01 668.299 627.538 668.12 628.08 668.12C628.623 668.12 629.15 668.299 629.58 668.63C633.24 671.2 636.96 673.69 641.13 676.53C639.47 677.53 638.26 678.22 637.01 678.88C595.744 700.56 554.48 722.227 513.22 743.88C512 744.52 510.3 744.63 509.73 746.27L508.1 746.32ZM382.51 492C381.33 499.32 380.25 506 379.17 512.71C375.724 534.237 372.284 555.783 368.85 577.35C366.85 590 364.74 602.65 362.85 615.35C362.52 617.66 361.6 618.64 359.5 619.21C355.58 620.29 351.7 621.58 347.94 622.75C347.02 621.81 347.49 621.02 347.61 620.24C351.31 596.807 355.007 573.373 358.7 549.94C362.294 527.18 365.877 504.42 369.45 481.66C369.76 479.73 370.39 478.52 372.55 478.02C375.725 477.224 378.845 476.221 381.89 475.02C382.727 474.605 383.68 474.49 384.591 474.696C385.502 474.902 386.314 475.415 386.89 476.15C394.84 484.22 402.97 492.15 411.03 500.07L487.92 576.07C488.49 576.63 489 577.25 489.71 578.07C485.1 579.97 480.49 581.07 475.98 582.59C474.4 583.1 473.77 581.86 472.98 581.05C466.734 574.943 460.5 568.823 454.28 562.69L384.28 493.69C383.9 493.31 383.48 492.98 382.43 492.06M504.93 565C501.34 561.47 498.09 558.23 494.79 555.06C493.61 553.93 494.22 552.87 494.62 551.71C497.62 543.22 500.5 534.71 503.44 526.24L534.38 437.08C534.77 435.97 535.12 434.85 535.51 433.67C533.71 432.99 532.37 433.98 531.02 434.4C492.554 446.46 454.097 458.55 415.65 470.67C409.65 472.56 411.65 473.11 406.98 468.57C404.64 466.29 402.36 463.96 399.98 461.57C401.08 460.19 402.71 460.18 404.07 459.75L538.07 417.31C541.31 416.31 543.34 416.71 545.42 419.23C547.089 421.216 548.944 423.038 550.96 424.67C552.85 426.23 552.96 427.75 552.15 429.98C547.15 444.08 542.23 458.25 537.3 472.39L506.3 561.11C505.91 562.23 505.48 563.33 504.88 564.96M496.7 594.66C495.95 599.53 495.22 603.81 494.7 608.12C494.47 609.95 493.18 610.12 491.88 610.53C481.754 613.737 471.627 616.95 461.5 620.17L373.5 648C372.38 648.35 371.27 648.74 369.87 649.21C370.887 650.438 372.134 651.457 373.54 652.21C406.534 674.983 439.534 697.73 472.54 720.45C475.43 722.45 477.03 724.2 475.93 727.94C474.98 731.17 474.79 734.62 474.25 737.99C472.65 737.99 471.84 736.99 470.9 736.37C432.234 709.803 393.567 683.24 354.9 656.68C352.33 654.92 351.58 653.17 352.27 650.29C352.968 647.652 353.406 644.953 353.58 642.23C353.68 639.78 354.96 639.05 356.96 638.42C402.82 623.993 448.67 609.543 494.51 595.07C495.01 594.91 495.51 594.84 496.7 594.6M392 305.68C391.74 310.5 390.53 314.99 389.93 319.56C389.7 321.34 388.01 321.29 386.78 321.67C378.18 324.31 369.57 326.9 360.97 329.51C330.07 338.89 299.17 348.28 268.27 357.68C267.17 358.01 265.76 357.93 264.89 359.34C266.17 360.34 267.44 361.27 268.74 362.19C301.614 385.397 334.5 408.607 367.4 431.82C369.95 433.61 370.71 435.3 370.05 438.19C369.23 441.74 368.72 445.36 368.05 448.98C366.42 448.73 365.48 447.67 364.39 446.9C326.264 420.013 288.134 393.147 250 366.3C247.34 364.43 246.4 362.69 247.22 359.62C247.92 356.982 248.395 354.289 248.64 351.57C248.83 349.45 249.74 348.57 251.74 348C262.59 344.82 273.39 341.46 284.21 338.19L388.3 306.74C389.46 306.39 390.62 306.08 392.05 305.68M533.61 401.83C529.72 403.05 526.03 404.05 522.46 405.37C519.97 406.3 518.34 405.86 516.41 403.91C503.47 390.81 490.41 377.91 477.31 364.91C461.65 349.317 445.984 333.733 430.31 318.16C429.37 317.23 428.67 315.97 426.95 315.48C426.12 320.37 425.27 325.18 424.48 329.99C420.827 351.997 417.204 374.043 413.61 396.13C411.33 410.13 409.05 424.13 406.88 438.13C406.54 440.31 405.79 441.47 403.54 442.04C399.54 443.04 395.73 444.39 391.63 445.66C390.99 443.05 391.98 440.66 392.35 438.41C397.03 409.2 401.85 380.03 406.61 350.84C409.13 335.37 411.61 319.9 414.06 304.41C414.35 302.54 414.93 301.51 416.85 301.02C420.018 300.206 423.139 299.221 426.2 298.07C428.55 297.19 430.08 297.75 431.85 299.54C444.42 312.24 457.11 324.82 469.77 337.44C490.157 357.767 510.534 378.1 530.9 398.44C531.83 399.37 533.11 400.04 533.59 401.85M550.84 601.9C549.228 595.446 548.075 588.887 547.39 582.27C544.51 557.7 547.08 533.78 556.53 510.83C571.35 474.83 596.65 448.61 631.53 431.52C648.76 423.07 666.95 417.52 685.93 413.84C687.06 415.27 686.57 416.98 686.76 418.52C687.11 421.36 687.22 424.23 687.63 427.06C687.92 429.15 687.13 429.85 685.12 430.32C672.498 433.224 660.174 437.302 648.31 442.5C616.9 456.42 592.7 478.09 577.17 508.99C566.899 529.304 562.238 551.992 563.67 574.71C563.99 580.973 564.708 587.209 565.82 593.38C566.19 595.38 565.82 596.6 563.64 597.3C559.5 598.62 555.44 600.24 550.87 601.91M616.08 647.82C616.23 643.04 616.44 638.69 616.47 634.33C616.47 632.27 617.31 631.64 619.3 631.33C631.583 629.502 643.58 626.107 655 621.23C696.56 602.84 723.39 571.79 734.87 527.71C739.45 510.1 740.16 492.15 738.87 474.08C738.79 472.99 738.71 471.9 738.69 470.81C738.69 468.93 737.32 466.63 738.69 465.32C739.91 464.16 742.21 464.12 744.06 463.65C747.21 462.84 750.38 462.07 753.78 461.23C755.013 467.546 755.748 473.949 755.98 480.38C756.851 493.732 756.318 507.139 754.39 520.38C750.067 550.169 736.661 577.899 716 599.79C693.61 623.92 665.83 638.27 633.85 644.98C627.955 646.221 622.001 647.166 616.01 647.81M753.91 378.18C755.33 378.18 756.03 377.45 756.83 376.96C775.94 365.46 795.83 355.37 815.31 344.55C816.53 343.87 817.56 343.44 818.98 344.36C823.15 347.09 827.44 349.64 831.98 352.43C830.976 353.315 829.826 354.019 828.58 354.51C803.914 367.283 779.247 380.04 754.58 392.78C752.529 393.806 750.799 395.376 749.58 397.32C740.434 411.56 731.24 425.76 722 439.92C720.35 442.45 720.32 442.46 717.89 440.98C715.29 439.4 712.7 437.8 710.12 436.18C707.58 434.59 707.57 434.57 709.12 432.18C714.947 423.193 720.784 414.193 726.63 405.18C730.14 399.77 733.63 394.33 737.19 388.96C738.214 387.463 738.803 385.711 738.89 383.9C740.55 356.773 742.244 329.647 743.97 302.52C744.04 301.33 744.14 300.14 744.24 298.64C748.09 300.4 751.15 303.13 754.75 304.73C759 306.62 759.84 309.43 759.44 313.88C757.84 331.48 756.7 349.13 755.32 366.75C755.03 370.51 754.43 374.25 753.95 378.2M653.86 493.51C653.19 500.06 645.54 508.76 639.13 510.08C636.929 510.614 634.622 510.514 632.476 509.792C630.329 509.07 628.431 507.755 627 506C625.529 504.442 624.553 502.482 624.197 500.369C623.841 498.255 624.121 496.084 625 494.13C627.067 488.716 631.093 484.275 636.28 481.69C638.227 480.662 640.426 480.209 642.621 480.387C644.815 480.564 646.914 481.363 648.67 482.69C652.42 485.3 654.39 488.82 653.82 493.51M701.72 524.65C701.15 531.38 693.42 540.22 686.81 541.51C684.668 541.98 682.439 541.862 680.36 541.166C678.28 540.471 676.428 539.224 675 537.56C673.567 536.064 672.607 534.18 672.239 532.142C671.871 530.104 672.111 528.002 672.93 526.1C674.983 520.382 679.214 515.709 684.7 513.1C693.02 509.19 702.53 515.74 701.76 524.69M235.59 378.36C239.81 380.71 243.32 383.76 247.15 386.3C248.64 387.3 247.86 388.79 247.67 390.05C246.27 398.93 244.82 407.81 243.4 416.69C238.28 448.577 233.174 480.463 228.08 512.35C227.9 513.49 227.2 514.71 228.08 516.12C229.5 515.38 230.93 514.68 232.33 513.91C267.63 494.577 302.91 475.2 338.17 455.78C340.89 454.28 342.75 454.33 345.05 456.19C347.88 458.48 350.91 460.52 353.88 462.69C352.95 464.04 351.58 464.43 350.41 465.07C309.524 487.563 268.65 510.073 227.79 532.6C224.95 534.18 222.97 534.25 220.57 532.17C218.507 530.386 216.295 528.78 213.96 527.37C212.14 526.27 211.75 525.07 212.11 523.02C214 511.87 215.72 500.69 217.53 489.53C223.31 453.743 229.1 417.963 234.9 382.19C235.09 381 235.33 379.81 235.59 378.35" fill="white"/>
</g>
<defs>
<clipPath id="clip0_2_3246">
<rect width="1024" height="1024" fill="white"/>
</clipPath>
</defs>
</svg>

<svg width="1024" height="1024" fill="none" xmlns="http://www.w3.org/2000/svg"><g clip-path="url(#a)"><path d="M512 1024c282.77 0 512-229.23 512-512S794.77 0 512 0 0 229.23 0 512s229.23 512 512 512Z" fill="#9ABEFF"/><path d="M508.1 746.32c-2.34-2.88-5.66-4.49-8.68-6.44-2.46-1.59-3.32-3-2.81-6.19 4.48-27.86 8.72-55.76 13-83.65 2.9-18.86 5.77-37.73 8.77-57.32 4.34 3 8.39 5.63 12.3 8.46 1.16.84.45 2.33.28 3.48-1 6.74-2 13.48-3.07 20.22l-7 45.68-6.94 45.28c-.59 3.9-1.15 7.8-1.75 11.88 1.88.25 3-.82 4.25-1.47 35.754-18.667 71.5-37.367 107.24-56.1 1-.51 2-1 2.89-1.52a2.46 2.46 0 0 1 3 0c3.66 2.57 7.38 5.06 11.55 7.9-1.66 1-2.87 1.69-4.12 2.35-41.266 21.68-82.53 43.347-123.79 65-1.22.64-2.92.75-3.49 2.39l-1.63.05ZM382.51 492c-1.18 7.32-2.26 14-3.34 20.71a78666.079 78666.079 0 0 0-10.32 64.64c-2 12.65-4.11 25.3-6 38-.33 2.31-1.25 3.29-3.35 3.86-3.92 1.08-7.8 2.37-11.56 3.54-.92-.94-.45-1.73-.33-2.51 3.7-23.433 7.397-46.867 11.09-70.3 3.594-22.76 7.177-45.52 10.75-68.28.31-1.93.94-3.14 3.1-3.64a75.496 75.496 0 0 0 9.34-3 4.062 4.062 0 0 1 5 1.13c7.95 8.07 16.08 16 24.14 23.92l76.89 76c.57.56 1.08 1.18 1.79 2-4.61 1.9-9.22 3-13.73 4.52-1.58.51-2.21-.73-3-1.54a6226.25 6226.25 0 0 1-18.7-18.36l-70-69c-.38-.38-.8-.71-1.85-1.63M504.93 565c-3.59-3.53-6.84-6.77-10.14-9.94-1.18-1.13-.57-2.19-.17-3.35 3-8.49 5.88-17 8.82-25.47l30.94-89.16c.39-1.11.74-2.23 1.13-3.41-1.8-.68-3.14.31-4.49.73a77463.206 77463.206 0 0 0-115.37 36.27c-6 1.89-4 2.44-8.67-2.1-2.34-2.28-4.62-4.61-7-7 1.1-1.38 2.73-1.39 4.09-1.82l134-42.44c3.24-1 5.27-.6 7.35 1.92a40.631 40.631 0 0 0 5.54 5.44c1.89 1.56 2 3.08 1.19 5.31-5 14.1-9.92 28.27-14.85 42.41l-31 88.72c-.39 1.12-.82 2.22-1.42 3.85m-8.18 29.7c-.75 4.87-1.48 9.15-2 13.46-.23 1.83-1.52 2-2.82 2.41-10.126 3.207-20.253 6.42-30.38 9.64l-88 27.83c-1.12.35-2.23.74-3.63 1.21a12.314 12.314 0 0 0 3.67 3 95528.657 95528.657 0 0 0 99 68.24c2.89 2 4.49 3.75 3.39 7.49-.95 3.23-1.14 6.68-1.68 10.05-1.6 0-2.41-1-3.35-1.62-38.666-26.567-77.333-53.13-116-79.69-2.57-1.76-3.32-3.51-2.63-6.39a41.97 41.97 0 0 0 1.31-8.06c.1-2.45 1.38-3.18 3.38-3.81 45.86-14.427 91.71-28.877 137.55-43.35.5-.16 1-.23 2.19-.47M392 305.68c-.26 4.82-1.47 9.31-2.07 13.88-.23 1.78-1.92 1.73-3.15 2.11-8.6 2.64-17.21 5.23-25.81 7.84-30.9 9.38-61.8 18.77-92.7 28.17-1.1.33-2.51.25-3.38 1.66 1.28 1 2.55 1.93 3.85 2.85 32.874 23.207 65.76 46.417 98.66 69.63 2.55 1.79 3.31 3.48 2.65 6.37-.82 3.55-1.33 7.17-2 10.79-1.63-.25-2.57-1.31-3.66-2.08A174961.162 174961.162 0 0 0 250 366.3c-2.66-1.87-3.6-3.61-2.78-6.68a48.28 48.28 0 0 0 1.42-8.05c.19-2.12 1.1-3 3.1-3.57 10.85-3.18 21.65-6.54 32.47-9.81l104.09-31.45c1.16-.35 2.32-.66 3.75-1.06m141.56 96.15c-3.89 1.22-7.58 2.22-11.15 3.54-2.49.93-4.12.49-6.05-1.46-12.94-13.1-26-26-39.1-39a60901.462 60901.462 0 0 0-47-46.75c-.94-.93-1.64-2.19-3.36-2.68-.83 4.89-1.68 9.7-2.47 14.51a21035.163 21035.163 0 0 0-10.87 66.14c-2.28 14-4.56 28-6.73 42-.34 2.18-1.09 3.34-3.34 3.91-4 1-7.81 2.35-11.91 3.62-.64-2.61.35-5 .72-7.25 4.68-29.21 9.5-58.38 14.26-87.57 2.52-15.47 5-30.94 7.45-46.43.29-1.87.87-2.9 2.79-3.39a90.687 90.687 0 0 0 9.35-2.95c2.35-.88 3.88-.32 5.65 1.47 12.57 12.7 25.26 25.28 37.92 37.9 20.387 20.327 40.764 40.66 61.13 61 .93.93 2.21 1.6 2.69 3.41m17.25 200.05a140.859 140.859 0 0 1-3.45-19.63c-2.88-24.57-.31-48.49 9.14-71.44 14.82-36 40.12-62.22 75-79.31 17.23-8.45 35.42-14 54.4-17.68 1.13 1.43.64 3.14.83 4.68.35 2.84.46 5.71.87 8.54.29 2.09-.5 2.79-2.51 3.26a207.867 207.867 0 0 0-36.81 12.18c-31.41 13.92-55.61 35.59-71.14 66.49a127.83 127.83 0 0 0-13.5 65.72 147.806 147.806 0 0 0 2.15 18.67c.37 2 0 3.22-2.18 3.92-4.14 1.32-8.2 2.94-12.77 4.61m65.21 45.91c.15-4.78.36-9.13.39-13.49 0-2.06.84-2.69 2.83-3a145.392 145.392 0 0 0 35.7-10.1c41.56-18.39 68.39-49.44 79.87-93.52 4.58-17.61 5.29-35.56 4-53.63-.08-1.09-.16-2.18-.18-3.27 0-1.88-1.37-4.18 0-5.49 1.22-1.16 3.52-1.2 5.37-1.67 3.15-.81 6.32-1.58 9.72-2.42a123.11 123.11 0 0 1 2.2 19.15 191.22 191.22 0 0 1-1.59 40A146.306 146.306 0 0 1 716 599.79c-22.39 24.13-50.17 38.48-82.15 45.19a179.978 179.978 0 0 1-17.84 2.83m137.9-269.63c1.42 0 2.12-.73 2.92-1.22 19.11-11.5 39-21.59 58.48-32.41 1.22-.68 2.25-1.11 3.67-.19 4.17 2.73 8.46 5.28 13 8.07a11.54 11.54 0 0 1-3.4 2.08 77709.599 77709.599 0 0 1-74 38.27 12.504 12.504 0 0 0-5 4.54 7014.614 7014.614 0 0 1-27.58 42.6c-1.65 2.53-1.68 2.54-4.11 1.06-2.6-1.58-5.19-3.18-7.77-4.8-2.54-1.59-2.55-1.61-1-4 5.827-8.987 11.664-17.987 17.51-27 3.51-5.41 7-10.85 10.56-16.22a9.796 9.796 0 0 0 1.7-5.06c1.66-27.127 3.354-54.253 5.08-81.38.07-1.19.17-2.38.27-3.88 3.85 1.76 6.91 4.49 10.51 6.09 4.25 1.89 5.09 4.7 4.69 9.15-1.6 17.6-2.74 35.25-4.12 52.87-.29 3.76-.89 7.5-1.37 11.45M653.86 493.51c-.67 6.55-8.32 15.25-14.73 16.57A11.997 11.997 0 0 1 627 506a10.822 10.822 0 0 1-2-11.87 23.108 23.108 0 0 1 11.28-12.44 11.576 11.576 0 0 1 12.39 1c3.75 2.61 5.72 6.13 5.15 10.82m47.9 31.14c-.57 6.73-8.3 15.57-14.91 16.86a12.129 12.129 0 0 1-11.81-3.95 10.539 10.539 0 0 1-2.07-11.46 23.002 23.002 0 0 1 11.77-13c8.32-3.91 17.83 2.64 17.06 11.59M235.59 378.36c4.22 2.35 7.73 5.4 11.56 7.94 1.49 1 .71 2.49.52 3.75-1.4 8.88-2.85 17.76-4.27 26.64-5.12 31.887-10.226 63.773-15.32 95.66-.18 1.14-.88 2.36 0 3.77 1.42-.74 2.85-1.44 4.25-2.21 35.3-19.333 70.58-38.71 105.84-58.13 2.72-1.5 4.58-1.45 6.88.41 2.83 2.29 5.86 4.33 8.83 6.5-.93 1.35-2.3 1.74-3.47 2.38a154330.11 154330.11 0 0 0-122.62 67.53c-2.84 1.58-4.82 1.65-7.22-.43a48.187 48.187 0 0 0-6.61-4.8c-1.82-1.1-2.21-2.3-1.85-4.35 1.89-11.15 3.61-22.33 5.42-33.49 5.78-35.787 11.57-71.567 17.37-107.34.19-1.19.43-2.38.69-3.84" fill="#fff"/></g><defs><clipPath id="a"><path fill="#fff" d="M0 0h1024v1024H0z"/></clipPath></defs></svg>
